svgs/sharp-solid/family.svg

<svg xmlns="http://www.w3.org/2000/svg" viewBox="0 0 512 512"><!--! Font Awesome Pro 6.6.0 by @fontawesome - https://fontawesome.com License - https://fontawesome.com/license (Commercial License) Copyright 2024 Fonticons, Inc. --><path d="M128 128A64 64 0 1 0 128 0a64 64 0 1 0 0 128zm48 48c0-5.5 .6-10.8 1.6-16L32 160 24 352l40 0 0 160 112 0 0-64-32 0 0-32 0-160 0-32 32 0 16 0c-10-13.4-16-30-16-48zM336 448l0 64 112 0 0-128 64 0L448 160l-113.6 0c1 5.2 1.6 10.5 1.6 16c0 18-6 34.6-16 48l16 0 32 0 0 32 0 160 0 32-32 0zm48-320A64 64 0 1 0 384 0a64 64 0 1 0 0 128zM256 224a48 48 0 1 0 0-96 48 48 0 1 0 0 96zm80 192l0-160-160 0 0 160 32 0 0 96 96 0 0-96 32 0z"/></svg>

<svg xmlns="http://www.w3.org/2000/svg" viewBox="0 0 512 512"><!--! Font Awesome Pro 6.4.2 by @fontawesome - https://fontawesome.com License - https://fontawesome.com/license (Commercial License) Copyright 2023 Fonticons, Inc. --><path d="M128 128A64 64 0 1 0 128 0a64 64 0 1 0 0 128zm48 48c0-5.5 .6-10.8 1.6-16H32L24 352H64V512H176V448H144V416 256 224h32 16c-10-13.4-16-30-16-48zM336 448v64H448V384h64L448 160H334.4c1 5.2 1.6 10.5 1.6 16c0 18-6 34.6-16 48h16 32v32V416v32H336zm48-320A64 64 0 1 0 384 0a64 64 0 1 0 0 128zM256 224a48 48 0 1 0 0-96 48 48 0 1 0 0 96zm80 192V256H176V416h32v96h96V416h32z"/></svg>
